#src/img/admin/icon__restaurants.svg

<svg width="24" height="24" viewBox="0 0 24 24" fill="none" xmlns="http://www.w3.org/2000/svg">
<path d="M18.75 8.25H11.25C11.0511 8.25 10.8603 8.32902 10.7197 8.46967C10.579 8.61032 10.5 8.80109 10.5 9V12C10.5018 13.0625 10.8792 14.0901 11.5654 14.9012C12.2516 15.7123 13.2025 16.2547 14.25 16.4325V21H12V22.5H18V21H15.75V16.4325C16.7975 16.2547 17.7484 15.7123 18.4346 14.9012C19.1208 14.0901 19.4982 13.0625 19.5 12V9C19.5 8.80109 19.421 8.61032 19.2803 8.46967C19.1397 8.32902 18.9489 8.25 18.75 8.25ZM18 12C18 12.7956 17.6839 13.5587 17.1213 14.1213C16.5587 14.6839 15.7956 15 15 15C14.2044 15 13.4413 14.6839 12.8787 14.1213C12.3161 13.5587 12 12.7956 12 12V9.75H18V12Z" fill="#CA583E"/>
<path d="M11.2499 0.75H7.4999C7.30098 0.75 7.11022 0.829018 6.96957 0.96967C6.82891 1.11032 6.7499 1.30109 6.7499 1.5V7.0275C6.0211 7.45446 5.42498 8.07514 5.02777 8.82057C4.63057 9.56599 4.44784 10.407 4.4999 11.25V21.75C4.4999 21.9489 4.57891 22.1397 4.71957 22.2803C4.86022 22.421 5.05098 22.5 5.2499 22.5H8.99989V21H5.9999V11.25C5.9999 8.859 7.67315 8.235 7.7369 8.21175L8.24989 8.04V2.25H10.4999V6H11.9999V1.5C11.9999 1.30109 11.9209 1.11032 11.7802 0.96967C11.6396 0.829018 11.4488 0.75 11.2499 0.75Z" fill="#CA583E"/>
</svg>

<svg width="24" height="24" fill="none" xmlns="http://www.w3.org/2000/svg"><path d="M18.75 8.25h-7.5a.75.75 0 00-.75.75v3a4.504 4.504 0 003.75 4.433V21H12v1.5h6V21h-2.25v-4.567A4.504 4.504 0 0019.5 12V9a.75.75 0 00-.75-.75zM18 12a3 3 0 01-6 0V9.75h6V12z" fill="#CA583E"/><path d="M11.25.75H7.5a.75.75 0 00-.75.75v5.527A4.567 4.567 0 004.5 11.25v10.5a.75.75 0 00.75.75H9V21H6v-9.75c0-2.391 1.673-3.015 1.737-3.038l.513-.172V2.25h2.25V6H12V1.5a.75.75 0 00-.75-.75z" fill="#CA583E"/></svg>
